svgs/light/bars.svg

<svg xmlns="http://www.w3.org/2000/svg" viewBox="0 0 448 512"><!--! Font Awesome Pro 6.1.1 by @fontawesome - https://fontawesome.com License - https://fontawesome.com/license (Commercial License) Copyright 2022 Fonticons, Inc. --><path d="M0 80C0 71.16 7.164 64 16 64H432C440.8 64 448 71.16 448 80C448 88.84 440.8 96 432 96H16C7.164 96 0 88.84 0 80zM0 240C0 231.2 7.164 224 16 224H432C440.8 224 448 231.2 448 240C448 248.8 440.8 256 432 256H16C7.164 256 0 248.8 0 240zM432 416H16C7.164 416 0 408.8 0 400C0 391.2 7.164 384 16 384H432C440.8 384 448 391.2 448 400C448 408.8 440.8 416 432 416z"/></svg>

<svg xmlns="http://www.w3.org/2000/svg" viewBox="0 0 448 512"><!--! Font Awesome Pro 6.4.2 by @fontawesome - https://fontawesome.com License - https://fontawesome.com/license (Commercial License) Copyright 2023 Fonticons, Inc. --><path d="M0 80c0-8.8 7.2-16 16-16H432c8.8 0 16 7.2 16 16s-7.2 16-16 16H16C7.2 96 0 88.8 0 80zM0 240c0-8.8 7.2-16 16-16H432c8.8 0 16 7.2 16 16s-7.2 16-16 16H16c-8.8 0-16-7.2-16-16zM448 400c0 8.8-7.2 16-16 16H16c-8.8 0-16-7.2-16-16s7.2-16 16-16H432c8.8 0 16 7.2 16 16z"/></svg>
